icons/4_Outdated/Algolia v1.svg

<svg xmlns="http://www.w3.org/2000/svg" width="1024" height="1024" fill="none">
   <g clip-path="url(#a)">
      <path fill="#728DBE" d="M512 1024c282.77 0 512-229.23 512-512S794.77 0 512 0 0 229.23 0 512s229.23 512 512 512Z"/>
      <path fill="#fff" d="M517.42 434.77c-51.68 0-93.67 42.09-93.67 93.9s42 93.92 93.67 93.93a93.908 93.908 0 0 0 92.941-93.905 93.907 93.907 0 0 0-92.941-93.905v-.02Zm66 59.42-62 32.21a2.739 2.739 0 0 1-4-2.44V454a2.833 2.833 0 0 1 2.86-2.71 77.108 77.108 0 0 1 64.26 39.09 2.838 2.838 0 0 1-1.14 3.8l.02.01ZM685.11 276H338.88A61.92 61.92 0 0 0 277 338v347.85a62.008 62.008 0 0 0 18.064 43.895A61.998 61.998 0 0 0 338.88 748h346.23A62 62 0 0 0 747 685.84V338.18A62.072 62.072 0 0 0 685.11 276ZM472.6 365.2a20.52 20.52 0 0 1 20.4-20.46h47.57A20.429 20.429 0 0 1 561 365.22v16.18a2.768 2.768 0 0 1-2.76 2.76 3.175 3.175 0 0 1-.68-.08 150.763 150.763 0 0 0-40-5.43 148.28 148.28 0 0 0-41.4 5.86 2.83 2.83 0 0 1-3.57-2.71l.01-16.6Zm-94.67 53.4a20.443 20.443 0 0 1 6-14.47l9.72-9.73a20.369 20.369 0 0 1 14.42-5.987 20.37 20.37 0 0 1 14.42 5.987l8.13 8.16a2.748 2.748 0 0 1 .751 2.187 2.73 2.73 0 0 1-1.191 1.983 146.516 146.516 0 0 0-18.41 15.73 155.353 155.353 0 0 0-15.56 18.33 2.89 2.89 0 0 1-2.075 1.101 2.883 2.883 0 0 1-2.205-.811l-8-8a20.412 20.412 0 0 1-6-14.48Zm139.49 243.34c-73.4 0-132.93-59.56-132.93-133.28S444 395.27 517.42 395.27a132.927 132.927 0 0 1 94.11 39.054 132.944 132.944 0 0 1 38.82 94.206c0 73.71-59.53 133.41-132.93 133.41Z"/>
   </g>
   <defs>
      <clipPath id="a">
         <path fill="#fff" d="M0 0h1024v1024H0z"/>
      </clipPath>
   </defs>
</svg>

<svg width="1024" height="1024" viewBox="0 0 1024 1024" fill="none" xmlns="http://www.w3.org/2000/svg">
<g clip-path="url(#clip0_3_740)">
<path d="M512 1024C794.77 1024 1024 794.77 1024 512C1024 229.23 794.77 0 512 0C229.23 0 0 229.23 0 512C0 794.77 229.23 1024 512 1024Z" fill="#728DBE"/>
<path d="M517.42 434.77C465.74 434.77 423.75 476.86 423.75 528.67C423.75 580.48 465.75 622.59 517.42 622.6C542.157 622.345 565.795 612.339 583.197 594.756C600.6 577.173 610.361 553.434 610.361 528.695C610.361 503.956 600.6 480.217 583.197 462.634C565.795 445.051 542.157 435.045 517.42 434.79V434.77ZM583.42 494.19L521.42 526.4C521.002 526.617 520.535 526.722 520.064 526.705C519.594 526.689 519.135 526.551 518.733 526.306C518.331 526.061 517.999 525.716 517.769 525.305C517.539 524.894 517.419 524.431 517.42 523.96V454C517.451 453.265 517.767 452.571 518.301 452.066C518.835 451.56 519.545 451.282 520.28 451.29C533.438 451.777 546.252 455.625 557.5 462.467C568.749 469.31 578.058 478.92 584.54 490.38C584.884 491.037 584.957 491.802 584.744 492.512C584.531 493.222 584.049 493.821 583.4 494.18L583.42 494.19ZM685.11 276H338.88C330.745 276.005 322.691 277.613 315.178 280.733C307.665 283.852 300.84 288.421 295.094 294.178C289.347 299.936 284.791 306.77 281.687 314.289C278.582 321.808 276.99 329.865 277 338V685.85C276.98 693.994 278.566 702.063 281.665 709.595C284.765 717.126 289.318 723.974 295.064 729.745C300.811 735.517 307.638 740.1 315.156 743.232C322.674 746.364 330.736 747.984 338.88 748H685.11C693.256 747.986 701.32 746.366 708.84 743.234C716.36 740.101 723.189 735.518 728.936 729.745C734.684 723.972 739.238 717.124 742.337 709.59C745.437 702.057 747.021 693.986 747 685.84V338.18C747.029 321.73 740.527 305.941 728.923 294.282C717.318 282.623 701.56 276.048 685.11 276ZM472.6 365.2C472.616 359.789 474.768 354.603 478.589 350.771C482.41 346.939 487.589 344.772 493 344.74H540.57C543.257 344.74 545.918 345.27 548.4 346.3C550.882 347.33 553.136 348.839 555.034 350.741C556.932 352.644 558.436 354.902 559.459 357.386C560.483 359.871 561.007 362.533 561 365.22V381.4C560.998 382.131 560.706 382.832 560.189 383.349C559.672 383.866 558.971 384.157 558.24 384.16C558.011 384.158 557.783 384.131 557.56 384.08C544.531 380.485 531.077 378.659 517.56 378.65C503.553 378.638 489.614 380.611 476.16 384.51C475.742 384.623 475.304 384.639 474.879 384.556C474.454 384.474 474.054 384.294 473.709 384.033C473.364 383.771 473.084 383.433 472.89 383.046C472.696 382.659 472.593 382.233 472.59 381.8L472.6 365.2ZM377.93 418.6C377.93 415.912 378.459 413.25 379.489 410.767C380.519 408.284 382.028 406.029 383.93 404.13L393.65 394.4C395.542 392.502 397.789 390.997 400.264 389.969C402.738 388.942 405.391 388.413 408.07 388.413C410.749 388.413 413.402 388.942 415.877 389.969C418.351 390.997 420.599 392.502 422.49 394.4L430.62 402.56C430.897 402.848 431.108 403.193 431.238 403.571C431.367 403.949 431.413 404.35 431.371 404.747C431.329 405.145 431.201 405.528 430.995 405.87C430.789 406.213 430.511 406.506 430.18 406.73C423.62 411.456 417.462 416.718 411.77 422.46C406.118 428.159 400.915 434.287 396.21 440.79C395.961 441.109 395.647 441.372 395.29 441.562C394.932 441.751 394.539 441.864 394.135 441.891C393.731 441.918 393.326 441.86 392.946 441.72C392.566 441.581 392.22 441.362 391.93 441.08L383.93 433.08C382.025 431.181 380.514 428.924 379.485 426.439C378.455 423.954 377.927 421.29 377.93 418.6ZM517.42 661.94C444.02 661.94 384.49 602.38 384.49 528.66C384.49 454.94 444 395.27 517.42 395.27C534.904 395.271 552.216 398.721 568.365 405.423C584.514 412.124 599.182 421.945 611.53 434.324C623.878 446.702 633.662 461.395 640.324 477.56C646.985 493.725 650.392 511.046 650.35 528.53C650.35 602.24 590.82 661.94 517.42 661.94Z" fill="white"/>
</g>
<defs>
<clipPath id="clip0_3_740">
<rect width="1024" height="1024" fill="white"/>
</clipPath>
</defs>
</svg>
